X: 41594
T: Up Carningli
R: jig
M: 6/8
K: Adorian
|:E|"Am"A>BA GED|"G"G2G GAB|"Am"A>Bc BAG|"C" E2G G2E|
"Am"A>BA GED|"G"G2G GAB|"Am"A>Bc BAG|"Em" E>FE "Am"E2:|
|:c|"C"e2e "G"dcB|"Am"ABc "G"d2c|"C"e2e "D"dAF|"C"E2G G2E|
"Am"A>BA GED|"G"G2G GAB|"Am"A>Bc BAG|"Em"E>FE "Am"E2:|

